X:390
T: Joys of Youth
S: "First Collection of Traditional Irish Music" (M.Mulvihill)
Z: B.Black
L: 1/8
M: 4/4
R: reel
K: G
F|GBdB cAFA|GABc dBcA|GBdB cAFA|GBAF G2 GF|
GBdB cAFA|GABc defg|(3agf ge fdcA|GBAF G3 :|
a/g/|fgdg edcA|dg (3agf g2 ag|fgdg edcA|GBAF G2 ag|
fgdg edcA|dg (3agf g2 ag|f2 dg edcA|GBAF G3 :|
